X: 3
T: Lamplighter's Hornpipe (R-90)
M: C|
Z: Transcribed to abc by Mary Lou Knack
R: hornpipe
K: A
cd| "A"ecec eagf| ecec eagf| ecec fedc| "E7"d2B2 B2cd|
    "A"ecec eagf| ecec eagf| efde "E7"cdBc| "A"A2A2 A2 :|
|:cd| "A"edcd e2fe| "E7"dcBc d2ed| "A"cAcA dcBA| "E"GABc B2cd|
    "A"edcd e2fe| "E"dcBc d2ed| "A"cagf "E"edcB| "A"A2c2 A2 :|
%%text 12/19/04
